docs/images/icons/processing.svg

<svg width="54" height="59" viewBox="0 0 54 59" fill="none" xmlns="http://www.w3.org/2000/svg">
<path fill-rule="evenodd" clip-rule="evenodd" d="M16.3328 9.66701H42.611C43.5786 9.66701 43.5786 8.20256 42.611 8.20256H16.3328C15.3653 8.20256 15.3653 9.66701 16.3328 9.66701ZM53.4376 13.748L49.7126 20.7171V52.0185C49.7126 55.8665 46.5936 59 42.7819 59H6.94565C3.11883 59 0 55.8637 0 52.0185V6.98413C0 3.13611 3.11903 0 6.94565 0H42.7819C46.5349 0 49.6109 3.03386 49.7126 6.79471C53.0328 7.08402 55.0417 10.7426 53.4376 13.748ZM48.2537 23.4587L36.3986 45.7022C36.3401 45.861 36.2255 45.9787 36.0956 46.0658L29.2517 50.6409C28.9334 50.8586 28.9181 50.815 28.5744 50.815H16.3302C15.3627 50.815 15.3627 49.3327 16.3302 49.3327H27.9532V42.5812H16.3302C15.3627 42.5812 15.3627 41.0989 16.3302 41.0989H28.1546C29.0356 39.445 30.2908 37.0921 31.7497 34.3474H16.3306C15.3631 34.3474 15.3631 32.8804 16.3306 32.8804H32.5312L36.1417 26.1289H16.3326C15.365 26.1289 15.365 24.6466 16.3326 24.6466H36.9205L40.531 17.8951H16.3327C15.3651 17.8951 15.3651 16.4153 16.3327 16.4153H41.3099L45.1367 9.25685C45.8012 8.00749 46.9699 7.1805 48.2557 6.87586C48.1972 3.90086 45.758 1.47633 42.7841 1.47633H10.6879V57.5296H42.7841C45.786 57.5296 48.2557 55.0487 48.2557 52.0123V23.4584L48.2537 23.4587ZM29.4432 48.7073L29.4585 42.3196L34.7289 45.1666L29.4432 48.7073ZM48.8038 19.2339L43.1438 16.1847L29.9753 40.8808L35.6353 43.93L48.8038 19.2339ZM43.8669 14.8482L49.5116 17.8974L50.2194 16.5635L44.5747 13.5143L43.8669 14.8482ZM45.28 12.1932L50.94 15.2425L52.1087 13.0202C54.1023 9.28994 48.455 6.24055 46.4639 9.97099L45.28 12.1932ZM1.47667 52.0151C1.47667 55.049 3.93109 57.5324 6.94824 57.5324H9.22956V1.47913H6.94824C3.93109 1.47913 1.47667 3.94719 1.47667 6.98105V52.0151ZM5.34422 15.0378C6.67332 15.0378 7.74012 13.9625 7.74012 12.6414C7.74012 11.305 6.67078 10.2322 5.34422 10.2322C4.03044 10.2322 2.96109 11.3075 2.96109 12.6414C2.96364 13.965 4.03044 15.0378 5.34422 15.0378ZM5.34422 11.7146C5.84835 11.7146 6.2685 12.137 6.2685 12.644C6.2685 13.1509 5.85092 13.5733 5.34422 13.5733C4.84009 13.5733 4.41998 13.1509 4.41998 12.644C4.41998 12.1345 4.84007 11.7146 5.34422 11.7146ZM5.34422 26.2747C6.67332 26.2747 7.74012 25.1994 7.74012 23.8784C7.74012 22.5573 6.67078 21.4846 5.34422 21.4846C4.03044 21.4846 2.96109 22.5599 2.96109 23.8784C2.96364 25.202 4.03044 26.2747 5.34422 26.2747ZM5.34422 22.9515C5.84835 22.9515 6.2685 23.3714 6.2685 23.8809C6.2685 24.3878 5.85092 24.8103 5.34422 24.8103C4.84009 24.8103 4.41998 24.3879 4.41998 23.8809C4.41998 23.3714 4.84007 22.9515 5.34422 22.9515ZM5.34422 37.5267C6.67332 37.5267 7.74012 36.4514 7.74012 35.1175C7.74012 33.7965 6.67078 32.7212 5.34422 32.7212C4.03044 32.7212 2.96109 33.7965 2.96109 35.1175C2.96364 36.4514 4.03044 37.5267 5.34422 37.5267ZM5.34422 34.201C5.84835 34.201 6.2685 34.608 6.2685 35.115C6.2685 35.6372 5.85092 36.0444 5.34422 36.0444C4.84009 36.0444 4.41998 35.6373 4.41998 35.115C4.41998 34.608 4.84007 34.201 5.34422 34.201ZM5.34422 48.7637C6.67332 48.7637 7.74012 47.6884 7.74012 46.3699C7.74012 45.0335 6.67078 43.9582 5.34422 43.9582C4.03044 43.9582 2.96109 45.0335 2.96109 46.3699C2.96364 47.691 4.03044 48.7637 5.34422 48.7637ZM5.34422 45.438C5.84835 45.438 6.2685 45.8451 6.2685 46.3674C6.2685 46.8743 5.85092 47.2813 5.34422 47.2813C4.84009 47.2813 4.41998 46.8743 4.41998 46.3674C4.41998 45.8451 4.84007 45.438 5.34422 45.438Z" fill="white"/>
</svg>

<svg width="54" height="59" fill="none" xmlns="http://www.w3.org/2000/svg"><path fill-rule="evenodd" clip-rule="evenodd" d="M16.333 9.667H42.61c.968 0 .968-1.464 0-1.464H16.333c-.968 0-.968 1.464 0 1.464Zm37.105 4.081-3.725 6.97v31.3c0 3.849-3.12 6.982-6.931 6.982H6.946C3.119 59 0 55.864 0 52.019V6.984C0 3.136 3.119 0 6.946 0h35.836c3.753 0 6.829 3.034 6.93 6.795 3.32.289 5.33 3.948 3.726 6.953Zm-5.184 9.71L36.399 45.703a.76.76 0 0 1-.303.364l-6.844 4.575c-.319.218-.334.174-.678.174H16.33c-.967 0-.967-1.482 0-1.482h11.623V42.58H16.33c-.967 0-.967-1.482 0-1.482h11.825c.88-1.654 2.136-4.007 3.595-6.752H16.33c-.967 0-.967-1.467 0-1.467h16.201l3.61-6.751H16.334c-.968 0-.968-1.482 0-1.482H36.92l3.611-6.752H16.333c-.968 0-.968-1.48 0-1.48H41.31l3.827-7.158a4.76 4.76 0 0 1 3.119-2.381c-.059-2.975-2.498-5.4-5.472-5.4H10.688V57.53h32.096c3.002 0 5.472-2.481 5.472-5.518V23.458h-.002Zm-18.81 25.25.015-6.388 5.27 2.847-5.286 3.54Zm19.36-29.474-5.66-3.05-13.169 24.697 5.66 3.049 13.169-24.696Zm-4.937-4.386 5.645 3.05.707-1.334-5.644-3.05-.708 1.334Zm1.413-2.655 5.66 3.05 1.169-2.223c1.993-3.73-3.654-6.78-5.645-3.049l-1.184 2.222ZM1.477 52.015c0 3.034 2.454 5.517 5.471 5.517H9.23V1.48H6.948c-3.017 0-5.471 2.468-5.471 5.502v45.034Zm3.867-36.977A2.394 2.394 0 0 0 7.74 12.64a2.397 2.397 0 0 0-2.396-2.409c-1.314 0-2.383 1.075-2.383 2.41a2.393 2.393 0 0 0 2.383 2.396Zm0-3.323c.504 0 .925.422.925.929 0 .507-.418.93-.925.93a.935.935 0 0 1-.924-.93c0-.51.42-.93.924-.93Zm0 14.56a2.394 2.394 0 0 0 2.396-2.397 2.393 2.393 0 0 0-2.396-2.393 2.392 2.392 0 0 0-2.383 2.393 2.393 2.393 0 0 0 2.383 2.397Zm0-3.323c.504 0 .925.42.925.929 0 .507-.418.93-.925.93a.935.935 0 0 1-.924-.93c0-.51.42-.93.924-.93Zm0 14.575a2.397 2.397 0 0 0 2.396-2.41 2.396 2.396 0 0 0-2.396-2.396 2.393 2.393 0 0 0-2.383 2.397c.003 1.333 1.07 2.409 2.383 2.409Zm0-3.326a.922.922 0 1 1 0 1.843.922.922 0 1 1 0-1.843Zm0 14.563A2.393 2.393 0 0 0 7.74 46.37a2.399 2.399 0 0 0-2.396-2.412c-1.314 0-2.383 1.075-2.383 2.412a2.392 2.392 0 0 0 2.383 2.394Zm0-3.326c.504 0 .925.407.925.93a.92.92 0 0 1-.925.913.922.922 0 1 1 0-1.843Z" fill="#fff"/></svg>
